X:1
T:Chas. H. Gabriel
T:C. H. G.
T:Keep the Heart Singing
%%score { ( 1 2 ) | ( 3 4 ) }
L:1/8
M:4/4
K:Ab
V:1 treble 
V:2 treble 
V:3 bass 
V:4 bass 
V:1
{/x} EE | A>AAB c2 BA | F>F=EF B2 AA | A>GGG GdF>G | E6 EE | A>GAB c2 BA | %6
w: We may|light\- en toil and care, Or a|heav\- y bur\- den share, With a|word, a kind\- ly deed, or sun\- ny|smile; We may|gir\- dle day and night With a|
w: If His|love is in the soul, And we|yield to His con\- trol, Sweet\- est|mus\- ic will the lone\- ly hours be\-|guile; We may|drive the clouds a\- way, Cheer and|
w: How a|word of love will cheer, Kin\- dle|hope, and ban\- ish fear, Soothe a|pain, or take a\- way the sting of|guile; Oh, how|much we all may do, In the|
 G>F=EF[Q:1/4=48]"^Largo" !fermata!d2[Q:1/4=120]"^Allegretto" cB | A>A E2 c<cB>B | A6 z2 | %9
w: ha\- lo of de\- light, If we|keep the heart sing\- ing all the|while.|
w: bless the dark\- est day, If we|keep the heart sing\- ing all the|while.|
w: world we trav\- el thro', If we|keep the heart sing\- ing all the|while.|
"^Chorus" c>c c2 c<EB>A | G4- G2 z2 | d>d d2 d<FG>F | E4- E2 z2 | e>e e2 e<cBA | %14
w: Keep your heart sing\- ing all the|while, *|Make the world brigh\- ter with a|smile, *|Keep the song ring\- ing! lone\- ly|
w: |||||
w: |||||
 GF=EF[Q:1/4=48]"^Largo" !fermata!d2[Q:1/4=120]"^Allegretto" cB | A>A E2 c<cB>B | A6 z2 |] %17
w: hours we may be\- guile, If we|keep the heart sing\- ing all the|while.|
w: |||
w: |||
V:2
 CC | C>B,CD E2 EE | E>DDD D2 =DD | D>DDD DFD>D | C6 CC | C>B,CD E2 EE | E>DDD F2 FF | %7
 E>E C2 E<ED>D | C6 z2 | E>E E2 E<CC>C | D4- D2 z2 | E>E E2 E<DD>D | C4- C2 z2 | E>E E2 E<EEE | %14
 EDDD F2 FF | E>E C2 E<ED>D | C6 z2 |] %17
V:3
 A,A, | A,>A,A,A, A,2 A,A, | A,>A,A,A, F,2 DD | D>DDD DG,G,>G, | A,6 A,A, | A,>A,A,A, A,2 A,A, | %6
w: ||||||
 A,>A,A,A, B,2 A,B, | C>C A,2 A,<A,G,>G, | A,6 z2 | A,>A, A,2 A,<A,- A,2 | B,<B,B,>B, B,2 z2 | %11
w: |||* * * Sing- ing, *|sing- ing all the while;|
 G,>G, G,2 G,<G,- G,2 | A,<A,A,>A, A,2 z2 | C>C C2 C<A,A,A, | A,A,A,A, B,2 =A,B, | %15
w: * * * bright- er *|bright- er with a smile;|||
 C>C A,2 A,<A,G,>G, | A,6 z2 |] %17
w: ||
V:4
 A,,A,, | A,,>A,,A,,A,, A,,2 C,C, | D,>D,D,D, D,2 B,,B,, | E,>E,E,E, E,E,E,>E, | A,,6 A,,A,, | %5
 A,,>A,,A,,A,, A,,2 C,C, | D,>D,D,D, !fermata!D,2 C,D, | E,>E, E,2 E,<E,E,>E, | A,,6 z2 | %9
 A,,>A,, A,,2 A,,<A,,- A,,2 | E,<E,E,>E, E,2 z2 | E,>E, E,2 E,<E,- E,2 | A,,<A,,C,>E, A,,2 z2 | %13
 A,>A, A,2 A,<A,,C,C, | D,D,D,D, !fermata!B,,2 C,D, | E,>E, E,2 E,<E,E,>E, | A,,6 z2 |] %17

